src/svg/link-external.svg

<svg height="16" width="12" xmlns="http://www.w3.org/2000/svg" viewBox="0 0 12 16">
  <path d="M11 10h1v3c0 0.55-0.45 1-1 1H1c-0.55 0-1-0.45-1-1V3c0-0.55 0.45-1 1-1h3v1H1v10h10V10zM6 2l2.25 2.25-3.25 3.25 1.5 1.5 3.25-3.25 2.25 2.25V2H6z" />
</svg>

<?xml version="1.0" encoding="UTF-8" standalone="no"?>
<svg width="12px" height="16px" viewBox="0 0 12 16" version="1.1" xmlns="http://www.w3.org/2000/svg" xmlns:xlink="http://www.w3.org/1999/xlink">
    <!-- Generator: Sketch 3.7.1 (28215) - http://www.bohemiancoding.com/sketch -->
    <title>link-external</title>
    <desc>Created with Sketch.</desc>
    <defs></defs>
    <g id="Octicons" stroke="none" stroke-width="1" fill="none" fill-rule="evenodd">
        <g id="link-external" fill="#000000">
            <path d="M11,10 L12,10 L12,13 C12,13.55 11.55,14 11,14 L1,14 C0.45,14 0,13.55 0,13 L0,3 C0,2.45 0.45,2 1,2 L4,2 L4,3 L1,3 L1,13 L11,13 L11,10 L11,10 Z M6,2 L8.25,4.25 L5,7.5 L6.5,9 L9.75,5.75 L12,8 L12,2 L6,2 L6,2 Z" id="Shape"></path>
        </g>
    </g>
</svg>
